X: 10182
T: MY NANNIE, O.
Q: "Slow."
%R: air, march
B: W. Hamilton "Universal Tune-Book" Vol. 1 Glasgow 1844 p.18 #2
S: http://imslp.org/wiki/Hamilton's_Universal_Tune-Book_(Various)
Z: 2016 John Chambers <jc:trillian.mit.edu>
M: C
L: 1/8
K: Em
%%slurgraces yes
%%graceslurs yes
% - - - - - - - - - - - - - - - - - - - - - - - - -
G>A |\
B2E2 TB3A | G2TF>E E2(DE) | G3A (TB>AB)d | {d}e2A>B TA2(G>A) |\
B2(Bc/)d/ (cB)(TAG) | A2B2 Tg3f | (e>ge)d (B>AB)^d | {d}e2(E>F) E2 :|
|: (B>c) |\
d3e d2(c>B) | g2(d>e) d2(g>f) | e3f (Tg>fg)a | {ga}b2(e>f) Te2(d>c) |\
B2g2 (dB)(TAG) | A2B2 g3f | (e>ge)d (B>AB)^d | {d}e2E>F E2 :|
% - - - - - - - - - - - - - - - - - - - - - - - - -

%%sep 1 1 500
%%sep 1 1 500

